flaticon/business/barbershop.svg

<svg xmlns="http://www.w3.org/2000/svg" width="32" height="32" viewBox="0 0 24 24">
    <path d="M 22.757812 2.070312 L 22.757812 0 L 1.242188 0 L 1.242188 2.070312 L 0 2.070312 L 0 24 L 24 24 L 24 2.070312 Z M 2.070312 0.828125 L 21.929688 0.828125 L 21.929688 2.070312 L 2.070312 2.070312 Z M 19.863281 7.449219 C 19.863281 8.132812 19.304688 8.691406 18.621094 8.691406 C 17.9375 8.691406 17.378906 8.132812 17.378906 7.449219 L 17.378906 5.378906 L 19.863281 5.378906 Z M 16.550781 7.449219 C 16.550781 8.132812 15.996094 8.691406 15.308594 8.691406 C 14.625 8.691406 14.070312 8.132812 14.070312 7.449219 L 14.070312 5.378906 L 16.550781 5.378906 Z M 13.242188 7.449219 C 13.242188 8.132812 12.683594 8.691406 12 8.691406 C 11.316406 8.691406 10.757812 8.132812 10.757812 7.449219 L 10.757812 5.378906 L 13.242188 5.378906 Z M 9.929688 7.449219 C 9.929688 8.132812 9.375 8.691406 8.691406 8.691406 C 8.003906 8.691406 7.449219 8.132812 7.449219 7.449219 L 7.449219 5.378906 L 9.929688 5.378906 Z M 6.621094 7.449219 C 6.621094 8.132812 6.0625 8.691406 5.378906 8.691406 C 4.695312 8.691406 4.136719 8.132812 4.136719 7.449219 L 4.136719 5.378906 L 6.621094 5.378906 Z M 3.308594 7.449219 C 3.308594 8.132812 2.753906 8.691406 2.070312 8.691406 C 1.382812 8.691406 0.828125 8.132812 0.828125 7.449219 L 0.828125 5.378906 L 3.308594 5.378906 Z M 2.484375 23.171875 L 2.484375 22.515625 L 3.308594 21.6875 L 3.308594 23.171875 Z M 2.898438 12.828125 C 2.441406 12.828125 2.070312 12.457031 2.070312 12 C 2.070312 11.542969 2.441406 11.171875 2.898438 11.171875 C 3.351562 11.171875 3.722656 11.542969 3.722656 12 C 3.722656 12.457031 3.351562 12.828125 2.898438 12.828125 Z M 2.484375 17.550781 L 3.308594 16.722656 L 3.308594 18.035156 L 2.484375 18.863281 Z M 2.484375 20.035156 L 3.308594 19.207031 L 3.308594 20.519531 L 2.484375 21.347656 Z M 3.308594 14.898438 L 3.308594 15.554688 L 2.484375 16.378906 L 2.484375 14.898438 Z M 6.207031 23.171875 L 6.207031 11.585938 L 12.414062 11.585938 L 12.414062 23.171875 Z M 13.242188 23.171875 L 13.242188 11.585938 L 19.449219 11.585938 L 19.449219 23.171875 Z M 20.277344 23.171875 L 20.277344 10.757812 L 5.378906 10.757812 L 5.378906 23.171875 L 4.136719 23.171875 L 4.136719 14.070312 L 3.308594 14.070312 L 3.308594 13.597656 C 4.023438 13.410156 4.550781 12.769531 4.550781 12 C 4.550781 11.085938 3.808594 10.34375 2.898438 10.34375 C 1.984375 10.34375 1.242188 11.085938 1.242188 12 C 1.242188 12.769531 1.769531 13.410156 2.484375 13.597656 L 2.484375 14.070312 L 1.65625 14.070312 L 1.65625 23.171875 L 0.828125 23.171875 L 0.828125 9.09375 C 1.175781 9.355469 1.601562 9.515625 2.070312 9.515625 C 2.746094 9.515625 3.347656 9.183594 3.722656 8.675781 C 4.101562 9.183594 4.699219 9.515625 5.378906 9.515625 C 6.058594 9.515625 6.65625 9.183594 7.035156 8.675781 C 7.410156 9.183594 8.011719 9.515625 8.691406 9.515625 C 9.367188 9.515625 9.96875 9.183594 10.34375 8.675781 C 10.722656 9.183594 11.320312 9.515625 12 9.515625 C 12.679688 9.515625 13.277344 9.183594 13.65625 8.675781 C 14.03125 9.183594 14.632812 9.515625 15.308594 9.515625 C 15.988281 9.515625 16.589844 9.183594 16.964844 8.675781 C 17.34375 9.183594 17.941406 9.515625 18.621094 9.515625 C 19.300781 9.515625 19.898438 9.183594 20.277344 8.675781 C 20.652344 9.183594 21.253906 9.515625 21.929688 9.515625 C 22.398438 9.515625 22.824219 9.355469 23.171875 9.09375 L 23.171875 23.171875 Z M 23.171875 7.449219 C 23.171875 8.132812 22.617188 8.691406 21.929688 8.691406 C 21.246094 8.691406 20.691406 8.132812 20.691406 7.449219 L 20.691406 5.378906 L 23.171875 5.378906 Z M 20.691406 4.550781 L 0.828125 4.550781 L 0.828125 2.898438 L 23.171875 2.898438 L 23.171875 4.550781 Z M 20.691406 4.550781"/>
    <path d="M14.070312 15.308594C14.175781 15.308594 14.28125 15.269531 14.363281 15.1875L15.1875 14.363281C15.351562 14.199219 15.351562 13.9375 15.1875 13.777344 15.027344 13.613281 14.765625 13.613281 14.605469 13.777344L13.777344 14.605469C13.613281 14.765625 13.613281 15.027344 13.777344 15.1875 13.855469 15.269531 13.964844 15.308594 14.070312 15.308594zM17.085938 13.777344L13.777344 17.085938C13.613281 17.25 13.613281 17.511719 13.777344 17.671875 13.855469 17.753906 13.964844 17.792969 14.070312 17.792969 14.175781 17.792969 14.28125 17.753906 14.363281 17.671875L17.671875 14.363281C17.832031 14.199219 17.832031 13.9375 17.671875 13.777344 17.511719 13.613281 17.25 13.613281 17.085938 13.777344zM17.085938 16.257812L13.777344 19.570312C13.613281 19.730469 13.613281 19.992188 13.777344 20.15625 13.855469 20.234375 13.964844 20.277344 14.070312 20.277344 14.175781 20.277344 14.28125 20.234375 14.363281 20.15625L17.671875 16.84375C17.832031 16.683594 17.832031 16.421875 17.671875 16.257812 17.511719 16.097656 17.25 16.097656 17.085938 16.257812zM8.277344 15.308594C8.382812 15.308594 8.488281 15.269531 8.570312 15.1875L9.394531 14.363281C9.558594 14.199219 9.558594 13.9375 9.394531 13.777344 9.234375 13.613281 8.972656 13.613281 8.8125 13.777344L7.984375 14.605469C7.820312 14.765625 7.820312 15.027344 7.984375 15.1875 8.0625 15.269531 8.171875 15.308594 8.277344 15.308594zM11.292969 13.777344L7.984375 17.085938C7.820312 17.25 7.820312 17.511719 7.984375 17.671875 8.0625 17.753906 8.171875 17.792969 8.277344 17.792969 8.382812 17.792969 8.488281 17.753906 8.570312 17.671875L11.878906 14.363281C12.039062 14.199219 12.039062 13.9375 11.878906 13.777344 11.71875 13.613281 11.457031 13.613281 11.292969 13.777344zM11.292969 16.257812L7.984375 19.570312C7.820312 19.730469 7.820312 19.992188 7.984375 20.15625 8.0625 20.234375 8.171875 20.277344 8.277344 20.277344 8.382812 20.277344 8.488281 20.234375 8.570312 20.15625L11.878906 16.84375C12.039062 16.683594 12.039062 16.421875 11.878906 16.257812 11.71875 16.097656 11.457031 16.097656 11.292969 16.257812zM11.292969 16.257812"/>
</svg>

<svg xmlns="http://www.w3.org/2000/svg" width="32" height="32" viewBox="0 0 24 24">
    <path d="M22.758 2.07V0H1.242v2.07H0V24h24V2.07zM2.07.828h19.86V2.07H2.07zM19.863 7.45c0 .684-.558 1.242-1.242 1.242A1.245 1.245 0 0 1 17.38 7.45V5.38h2.484zm-3.312 0c0 .684-.555 1.242-1.242 1.242A1.242 1.242 0 0 1 14.07 7.45V5.38h2.48zm-3.309 0c0 .684-.558 1.242-1.242 1.242a1.245 1.245 0 0 1-1.242-1.242V5.38h2.484zm-3.312 0c0 .684-.555 1.242-1.239 1.242A1.243 1.243 0 0 1 7.45 7.45V5.38h2.48zm-3.309 0c0 .684-.559 1.242-1.242 1.242A1.245 1.245 0 0 1 4.137 7.45V5.38H6.62zm-3.312 0c0 .684-.555 1.242-1.239 1.242A1.243 1.243 0 0 1 .828 7.45V5.38h2.48zm-.825 15.723v-.656l.825-.828v1.484zm.414-10.344a.829.829 0 0 1 0-1.656.828.828 0 0 1 0 1.656zm-.414 4.723l.825-.828v1.312l-.825.828zm0 2.484l.825-.828v1.313l-.825.828zm.825-5.137v.657l-.825.824v-1.48zm2.898 8.274V11.586h6.207v11.586zm7.035 0V11.586h6.207v11.586zm7.035 0V10.758H5.38v12.414H4.137V14.07h-.828v-.472a1.654 1.654 0 1 0-.825 0v.472h-.828v9.102H.828V9.094c.348.261.774.422 1.242.422.676 0 1.278-.332 1.653-.84.379.508.976.84 1.656.84.68 0 1.277-.332 1.656-.84.375.508.977.84 1.656.84.676 0 1.278-.332 1.653-.84.379.508.976.84 1.656.84.68 0 1.277-.332 1.656-.84.375.508.977.84 1.653.84.68 0 1.28-.332 1.656-.84.379.508.976.84 1.656.84.68 0 1.277-.332 1.656-.84.375.508.977.84 1.653.84.468 0 .894-.16 1.242-.422v14.078zm2.895-15.723c0 .684-.555 1.242-1.242 1.242A1.242 1.242 0 0 1 20.69 7.45V5.38h2.48zm-2.48-2.898H.827V2.898h22.344v1.653zm0 0"/>
    <path d="M14.07 15.309a.41.41 0 0 0 .293-.121l.825-.825a.41.41 0 0 0 0-.586.406.406 0 0 0-.583 0l-.828.828a.406.406 0 0 0 0 .582.404.404 0 0 0 .293.122zm0 0M17.086 13.777l-3.309 3.309a.41.41 0 0 0 0 .586.404.404 0 0 0 .293.121.41.41 0 0 0 .293-.121l3.309-3.309a.417.417 0 0 0 0-.586.41.41 0 0 0-.586 0zm0 0M17.086 16.258l-3.309 3.312a.41.41 0 0 0 0 .586.42.42 0 0 0 .293.121c.106 0 .211-.043.293-.12l3.309-3.313a.417.417 0 0 0 0-.586.417.417 0 0 0-.586 0zm0 0M8.277 15.309a.41.41 0 0 0 .293-.121l.825-.825a.41.41 0 0 0 0-.586.406.406 0 0 0-.582 0l-.829.828a.406.406 0 0 0 0 .582.404.404 0 0 0 .293.122zm0 0M11.293 13.777l-3.309 3.309a.41.41 0 0 0 0 .586.404.404 0 0 0 .293.121.41.41 0 0 0 .293-.121l3.309-3.309a.417.417 0 0 0 0-.586.41.41 0 0 0-.586 0zm0 0M11.293 16.258L7.984 19.57a.41.41 0 0 0 0 .586.42.42 0 0 0 .293.121c.106 0 .211-.043.293-.12l3.309-3.313a.417.417 0 0 0 0-.586.417.417 0 0 0-.586 0zm0 0"/>
</svg>
